svgs/sharp-regular/border-all.svg

<svg xmlns="http://www.w3.org/2000/svg" viewBox="0 0 448 512"><!--! Font Awesome Pro 6.6.0 by @fontawesome - https://fontawesome.com License - https://fontawesome.com/license (Commercial License) Copyright 2024 Fonticons, Inc. --><path d="M400 80l0 152-152 0 0-152 152 0zm0 200l0 152-152 0 0-152 152 0zM200 232L48 232 48 80l152 0 0 152zM48 280l152 0 0 152L48 432l0-152zM48 32L0 32 0 80 0 432l0 48 48 0 352 0 48 0 0-48 0-352 0-48-48 0L48 32z"/></svg>

<svg xmlns="http://www.w3.org/2000/svg" viewBox="0 0 448 512"><!--! Font Awesome Pro 6.4.0 by @fontawesome - https://fontawesome.com License - https://fontawesome.com/license (Commercial License) Copyright 2023 Fonticons, Inc. --><path d="M400 80V232H248V80H400zm0 200V432H248V280H400zM200 232H48V80H200V232zM48 280H200V432H48V280zM48 32H0V80 432v48H48 400h48V432 80 32H400 48z"/></svg>
